X:5
T: ZU STRASBURG AUF DER SCHANZ
N: Z0005
O: Europa, Mitteleuropa, Deutschland, Westfalen
N: Zweistimmigkeit, Terzparallelen
R: Sagen - Lied, Romanze
M: 4/4
L: 1/16
K: G
D4 | G6G2D6D2 | G8z4
G2A2 | B6B2d2c2A2F2 | G8z4
G2A2 | B3BB3BB4A3B | c4A4z4
F2G2 | A4A3AA4G3B | B4G4z4
d2c2 | B4A4B4c4 | d4d2c2B4A4 | G8z4

@@@ Tune index: 9763
